svg/business/christmas_ball_fill.svg

<?xml version="1.0" encoding="UTF-8"?>
<svg width="24px" height="24px" viewBox="0 0 24 24" version="1.1" xmlns="http://www.w3.org/2000/svg" xmlns:xlink="http://www.w3.org/1999/xlink">
    <title>christmas_ball_fill</title>
    <g id="Icon" stroke="none" stroke-width="1" fill="none" fill-rule="evenodd">
        <g id="Business" transform="translate(-817.000000, -432.000000)">
            <g id="christmas_ball_fill" transform="translate(817.000000, 432.000000)">
                <path d="M24,0 L24,24 L0,24 L0,0 L24,0 Z M12.5935,23.2578 L12.5819,23.2595 L12.5109,23.295 L12.4919,23.2987 L12.4767,23.295 L12.4057,23.2595 C12.3958,23.2564 12.387,23.259 12.3821,23.2649 L12.378,23.2758 L12.3609,23.7031 L12.3659,23.7235 L12.3769,23.7357 L12.4805,23.8097 L12.4953,23.8136 L12.5071,23.8097 L12.6107,23.7357 L12.6233,23.7197 L12.6267,23.7031 L12.6096,23.2758 C12.6076,23.2657 12.601,23.2593 12.5935,23.2578 Z M12.8584,23.1453 L12.8445,23.1473 L12.6598,23.2397 L12.6499,23.2499 L12.6472,23.2611 L12.6651,23.6906 L12.6699,23.7034 L12.6784,23.7105 L12.8793,23.8032 C12.8914,23.8069 12.9022,23.803 12.9078,23.7952 L12.9118,23.7812 L12.8777,23.1665 C12.8753,23.1546 12.8674,23.147 12.8584,23.1453 Z M12.143,23.1473 C12.1332,23.1424 12.1222,23.1453 12.1156,23.1526 L12.1099,23.1665 L12.0758,23.7812 C12.0751,23.7927 12.0828,23.8019 12.0926,23.8046 L12.1083,23.8032 L12.3092,23.7105 L12.3186,23.7024 L12.3225,23.6906 L12.3404,23.2611 L12.3372,23.2485 L12.3278,23.2397 L12.143,23.1473 Z" id="MingCute" fill-rule="nonzero"></path>
                <path d="M12.8944,2.55279 C12.725,2.214 12.3788,2 12,2 C11.6212,2 11.275,2.214 11.1056,2.55279 L10.302,4.15994 C6.14325,4.95397 3,8.60991 3,13 C3,17.9706 7.02944,22 12,22 C16.9706,22 21,17.9706 21,13 C21,8.60991 17.8567,4.95397 13.698,4.15994 L12.8944,2.55279 Z M16.9541,8.05465 C15.1395,7.93493 13.2332,8.38649 11.4188,9.68252 L11.1706,9.85263 C9.42935,10.9964 7.60972,11.1604 5.95081,10.7488 C5.92334,10.742 5.74914,10.687 5.4282,10.5838 C5.19911,11.2066 5.05606,11.8711 5.01343,12.5627 C5.14552,12.6043 5.29789,12.6475 5.46918,12.69 C7.72827,13.2505 10.2317,12.9882 12.5812,11.31 L12.8294,11.1399 C14.5707,9.99612 16.3903,9.83211 18.0492,10.2437 L18.4953,10.3852 C18.1409,9.5057 17.613,8.71473 16.9541,8.05465 Z M18.987,13.43 C18.8548,13.3884 18.7023,13.3451 18.5308,13.3026 C16.2717,12.742 13.7683,13.0043 11.4188,14.6826 L11.1706,14.8527 C9.42935,15.9964 7.60972,16.1605 5.95081,15.7489 C5.92552,15.7426 5.77583,15.6954 5.50173,15.6074 C5.85473,16.4863 6.38086,17.2771 7.03792,17.9374 C8.85493,18.059 10.7641,17.608 12.5812,16.31 L12.8294,16.1399 C14.5707,14.9961 16.3903,14.8321 18.0492,15.2437 L18.574,15.4102 C18.8026,14.7868 18.9451,14.122 18.987,13.43 Z" id="形状" fill="#09244B"></path>
            </g>
        </g>
    </g>
</svg>

<svg xmlns="http://www.w3.org/2000/svg" width="24" height="24"><g fill="none" fill-rule="evenodd"><path d="M24 0v24H0V0zM12.594 23.258l-.012.002-.071.035-.02.004-.014-.004-.071-.036c-.01-.003-.019 0-.024.006l-.004.01-.017.428.005.02.01.013.104.074.015.004.012-.004.104-.074.012-.016.004-.017-.017-.427c-.002-.01-.009-.017-.016-.018m.264-.113-.014.002-.184.093-.01.01-.003.011.018.43.005.012.008.008.201.092c.012.004.023 0 .029-.008l.004-.014-.034-.614c-.003-.012-.01-.02-.02-.022m-.715.002a.023.023 0 0 0-.027.006l-.006.014-.034.614c0 .012.007.02.017.024l.015-.002.201-.093.01-.008.003-.011.018-.43-.003-.012-.01-.01z"/><path fill="#09244B" d="M12.894 2.553a1 1 0 0 0-1.788 0l-.804 1.607a9 9 0 1 0 3.396 0zm4.06 5.502c-1.815-.12-3.72.331-5.535 1.628l-.248.17c-1.742 1.143-3.561 1.307-5.22.896a23.027 23.027 0 0 1-.523-.165 6.967 6.967 0 0 0-.415 1.979c.133.041.285.085.456.127 2.26.56 4.763.298 7.112-1.38l.248-.17c1.742-1.144 3.561-1.308 5.22-.896l.446.141a7.01 7.01 0 0 0-1.54-2.33m2.033 5.375a7.68 7.68 0 0 0-.456-.127c-2.26-.561-4.763-.299-7.112 1.38l-.248.17c-1.742 1.143-3.561 1.307-5.22.896a19.378 19.378 0 0 1-.45-.142c.354.88.88 1.67 1.537 2.33 1.817.122 3.726-.329 5.543-1.627l.248-.17c1.742-1.144 3.561-1.308 5.22-.896l.525.166a6.968 6.968 0 0 0 .413-1.98"/></g></svg>
